!!!OTL: Duikou shange
!!!ARE: Asia, China,ˇnan Zhejiang, Cixi
!! III, 643(2)
!!!SCT: C1631
!!!YEM: Copyright 1995, estate of Helmut Schaffrath.
**kern
*ICvox
*Ivox
!! Mixed meters:  2/4; 3/4
*M3/4
*k[f#c#g#]
*A:
{16eee
16ccc#
16ccc#
16aa
4bb
=1
16ccc#
32eee
32eee
16ccc#
16aa
4bb}
=2
{8bb
16bb
16bb
8bb
8aa
=3
8ff#
8ee
8.cc#
16ee
=4
16bb
16gg#
8ff#
4ee}
=5
{16ee
16ff#
8ff#
8ff#
8aa
=6
8ccc#
8bb
8bb
8aa
4ff#}
=7
*M2/4
{16aa
16ccc#
8bb
8bb
8aa
=8
8ff#
8ee
8cc#
8ee
=9
8bb
16gg#
16ff#
4ee}
=10
{16ccc#
32ccc#
32eee
16ccc#
16aa
4bb
=11
16ccc#
32eee
32eee
16ccc#
16aa
4bb}
=12
{16ff#
16ccc#
8bb
8bb
8aa
=13
8ff#
8ee
8bb
8aa
=14
8.ff#
16ee
8cc#
8ee
=15
16bb
16gg#
16ff#
16aa
4ee}
=16
{16ee
16ff#
8ff#
8ff#
8aa
=17
*M3/4
8ccc#
8bb
8bb
8aa
4ff#}
=18
*M2/4
{16aa
16ccc#
8bb
8bb
8aa
=19
8ff#
8ee
8cc#
8ee
=20
16bb
16gg#
16ff#
16aa
4ee}
==
!!!AGN: Shange, MengjiangnÅ diao. Chang huahui
!!!AMT: irregular
!!!AIN: vox
!!!EED: Helmut Schaffrath
!!!EEV: 1.0
*-
